svg/account_lock_open_outline.svg

<svg xmlns="http://www.w3.org/2000/svg" viewBox="0 0 24 24"><path d="M10 12c2.21 0 4-1.79 4-4s-1.79-4-4-4-4 1.79-4 4 1.79 4 4 4m0-6a2 2 0 1 1 0 4c-1.11 0-2-.89-2-2s.9-2 2-2m2 14H2v-3c0-2.67 5.33-4 8-4 .91 0 2.13.16 3.35.47-.09.33-.15.68-.15 1.03v.89c-.98-.29-2.1-.49-3.2-.49-2.97 0-6.1 1.46-6.1 2.1v1.1H12zm8.8-3h-4.3v-2.5c0-.8.7-1.3 1.5-1.3s1.5.5 1.5 1.3v.5h1.3v-.5c0-1.4-1.4-2.5-2.8-2.5s-2.8 1.1-2.8 2.5V17c-.6 0-1.2.6-1.2 1.2v3.5c0 .7.6 1.3 1.2 1.3h5.5c.7 0 1.3-.6 1.3-1.2v-3.5c0-.7-.6-1.3-1.2-1.3"/></svg>

<svg xmlns="http://www.w3.org/2000/svg" id="mdi-account-lock-open-outline" viewBox="0 0 24 24"><path d="M10 12C12.21 12 14 10.21 14 8S12.21 4 10 4 6 5.79 6 8 7.79 12 10 12M10 6C11.11 6 12 6.9 12 8S11.11 10 10 10 8 9.11 8 8 8.9 6 10 6M12 20H2V17C2 14.33 7.33 13 10 13C10.91 13 12.13 13.16 13.35 13.47C13.26 13.8 13.2 14.15 13.2 14.5V15.39C12.22 15.1 11.1 14.9 10 14.9C7.03 14.9 3.9 16.36 3.9 17V18.1H12C12 18.13 12 18.17 12 18.2V20M20.8 17H16.5V14.5C16.5 13.7 17.2 13.2 18 13.2S19.5 13.7 19.5 14.5V15H20.8V14.5C20.8 13.1 19.4 12 18 12S15.2 13.1 15.2 14.5V17C14.6 17 14 17.6 14 18.2V21.7C14 22.4 14.6 23 15.2 23H20.7C21.4 23 22 22.4 22 21.8V18.3C22 17.6 21.4 17 20.8 17Z" /></svg>
